packages/design-system/src/icons/assets/ic_timetable_float_close.svg

<svg width="24" height="24" viewBox="0 0 24 24" fill="none" xmlns="http://www.w3.org/2000/svg">
<path d="M12 13.8033L8.19672 17.6066C7.95628 17.847 7.65027 17.9672 7.27869 17.9672C6.9071 17.9672 6.60109 17.847 6.36066 17.6066C6.12022 17.3661 6 17.0601 6 16.6885C6 16.3169 6.12022 16.0109 6.36066 15.7705L10.1639 11.9672L6.36066 8.19672C6.12022 7.95628 6 7.65027 6 7.27869C6 6.9071 6.12022 6.60109 6.36066 6.36066C6.60109 6.12022 6.9071 6 7.27869 6C7.65027 6 7.95628 6.12022 8.19672 6.36066L12 10.1639L15.7705 6.36066C16.0109 6.12022 16.3169 6 16.6885 6C17.0601 6 17.3661 6.12022 17.6066 6.36066C17.8689 6.62295 18 6.93443 18 7.29508C18 7.65574 17.8689 7.95628 17.6066 8.19672L13.8033 11.9672L17.6066 15.7705C17.847 16.0109 17.9672 16.3169 17.9672 16.6885C17.9672 17.0601 17.847 17.3661 17.6066 17.6066C17.3443 17.8689 17.0328 18 16.6721 18C16.3115 18 16.0109 17.8689 15.7705 17.6066L12 13.8033Z" fill="#E9FFAC"/>
</svg>

<svg xmlns="http://www.w3.org/2000/svg" width="24" height="24" fill="none"><path fill="#E9FFAC" d="m12 13.803-3.803 3.804q-.36.36-.918.36t-.918-.36T6 16.689t.36-.918l3.804-3.804-3.803-3.77Q6 7.837 6 7.279t.36-.918Q6.722 6 7.28 6q.556 0 .918.36L12 10.165l3.77-3.803Q16.13 6 16.69 6q.556 0 .918.36.393.394.393.935 0 .54-.393.902l-3.804 3.77 3.804 3.803q.36.36.36.919 0 .556-.36.918a1.28 1.28 0 0 1-.935.393q-.54 0-.902-.393z"/></svg>
